Gruvbox-Plus-Dark/actions/16/folder-new.svg

<svg xmlns="http://www.w3.org/2000/svg" width="16" height="16" viewBox="0 0 16 16">
 <defs>
  <style id="current-color-scheme" type="text/css">
   .ColorScheme-Text { color:#ebdbb2; } .ColorScheme-Highlight { color:#458588; }
  </style>
 </defs>
 <path style="fill:currentColor" class="ColorScheme-Text" d="M 1.8398438 1.0097656 C 1.5585938 1.0566456 0.99609375 1.2597656 0.99609375 2.0097656 L 0.99609375 13.009766 C 0.99609375 13.009766 0.99609375 14.009766 1.9960938 14.009766 L 13.996094 14.009766 C 13.996094 14.009766 14.996094 14.009766 14.996094 13.009766 L 14.996094 4.0097656 C 14.996094 3.0097656 13.996094 3.0097656 13.996094 3.0097656 L 8.9960938 3.0097656 L 6.9960938 1.0097656 L 1.9960938 1.0097656 C 1.9960938 1.0097656 1.9335938 0.99416562 1.8398438 1.0097656 z M 6.9960938 5.0097656 L 8.9960938 5.0097656 L 8.9960938 7.0097656 L 10.996094 7.0097656 L 10.996094 9.0097656 L 8.9960938 9.0097656 L 8.9960938 11.009766 L 6.9960938 11.009766 L 6.9960938 9.0097656 L 4.9960938 9.0097656 L 4.9960938 7.0097656 L 6.9960938 7.0097656 L 6.9960938 5.0097656 z"/>
</svg>

<svg width="16" height="16" version="1.1" viewBox="0 0 16 16" xmlns="http://www.w3.org/2000/svg">
  <defs>
    <style type="text/css">.ColorScheme-Text { color:#ebdbb2; } .ColorScheme-Highlight { color:#458588; }</style>
  </defs>
  <path class="ColorScheme-Text" d="m1 2v11s-5e-8 1 1 1h12s1 0 1-1l-0.0039-8.99c-4.4e-4 -1-0.9961-1.01-0.9961-1.01h-5l-2-2h-5s-1 0.0057-1 1zm6 3h2v2h2v2h-2v2h-2v-2h-2v-2h2z" fill="currentColor"/>
</svg>
